X:1
T:Beauraing, 77.77 D
T:Beauraing, 77.77 D
T:R. A. Jennings, 1908
T:Public Domain Courtesy of the Cyber Hymnal™
C:R. A. Jennings, 1908
Z:Public Domain
Z:Courtesy of the Cyber Hymnal™
%%score ( 1 2 ) 3
L:1/8
Q:1/4=135
M:6/4
K:Eb
V:1 treble 
V:2 treble 
V:3 bass 
V:1
 E4 [DF]2 [EG]4 E2 | [Ee]4 [Ec]2 [EB]4 z2 | [EG]4 [DA]2 [EB]4 [EG]2 | [DF]4 [B,F]2 [DF]6 | %4
 E4 [DF]2 [EG]4 E2 | [Ee]4 [Ec]2 [EB]4 z2 | [EG]4 [DA]2 [EB]4 [EG]2 | [EG]4 [DF]2 !fermata!E6 | %8
 [EB]4 [Ec]2 [EB]4 [EG]2 | [EA]4 [EB]2 [Ec]4 z2 | [EB]4 [Ec]2 [EB]4 [EG]2 | [DA]4 [EG]2 [DF]6 | %12
 E4 [DF]2 [EG]4 E2 | [Ee]4 [Ec]2 [EB]4 z2 | [EG]4 [DA]2 [EB]4 [EG]2 | [EG]4 [DF]2 !fermata!E6 |] %16
V:2
 E4 x2 E2 x4 | x12 | x12 | x12 | E4 x2 E2 x4 | x12 | x12 | x6 E6 | x12 | x12 | x12 | x12 | %12
 E4 x2 E2 x4 | x12 | x12 | x6 E6 |] %16
V:3
 [E,G,]4 [E,A,]2 [E,B,]4 [E,G,]2 | [E,C]4 [E,A,]2 [E,G,]4 z2 | [E,B,]4 [F,B,]2 [G,B,]4 [E,B,]2 | %3
 [F,B,]4 [F,=A,]2 [B,,B,]6 | [E,G,]4 [E,A,]2 [E,B,]4 [E,G,]2 | [E,C]4 [E,A,]2 [E,G,]4 z2 | %6
 [E,B,]4 [F,B,]2 [G,B,]4 [E,B,]2 | [B,,B,]4 [B,,A,]2 !fermata![E,G,]6 | %8
 [E,G,]4 [E,A,]2 [E,G,]4 [E,B,]2 | [C,A,]4 [B,,G,]2 [A,,A,]4 z2 | [E,G,]4 [E,A,]2 [E,G,]4 [E,B,]2 | %11
 [F,B,]4 [E,B,]2 [B,,B,]6 | [E,G,]4 [E,A,]2 [E,B,]4 [E,G,]2 | [E,C]4 [E,A,]2 [E,G,]4 z2 | %14
 [E,B,]4 [F,B,]2 [G,B,]4 [E,B,]2 | [B,,B,]4 [B,,A,]2 !fermata![E,G,]6 |] %16

